P2
46 71
255
56 56 56 56 56 55 55 55 55 55 55 55 55 55 55 55 55 55 55 57 57 57 57 57 58 58 58 58 58 58 58 58 58 58 58 58 58 59 59 59 59 59 59 59 59 60
58 51 52 55 55 54 54 53 53 54 54 54 54 54 54 54 54 54 54 54 54 56 56 56 56 56 56 56 56 56 56 56 57 57 57 58 58 59 59 59 59 62 58 57 63 64
50 44 45 47 48 49 50 51 52 52 53 53 54 54 54 54 54 54 54 54 54 56 56 56 56 56 56 56 56 57 57 56 56 56 54 54 54 55 55 54 54 52 48 47 50 54
51 52 53 58 59 60 61 62 63 63 64 64 65 65 65 65 65 65 65 65 65 67 67 67 67 67 67 67 67 68 68 67 67 67 65 65 65 65 65 65 65 67 68 63 58 52
59 68 69 75 75 74 74 72 72 72 72 72 72 72 72 72 72 72 72 72 72 74 74 74 74 74 74 74 74 75 75 75 76 76 76 77 77 77 77 77 78 78 82 76 68 56
66 91 103 113 113 110 109 109 109 109 109 109 109 109 109 109 109 109 109 110 110 110 112 112 112 112 112 112 113 113 113 113 114 114 114 114 114 115 115 115 115 116 115 114 97 70
86 105 113 120 115 115 115 115 115 116 116 116 116 116 116 116 116 117 117 119 119 119 120 120 120 120 120 120 121 121 121 121 122 122 122 122 123 127 128 128 128 129 128 127 110 87
101 118 124 128 123 125 125 127 127 128 128 128 129 129 129 130 130 131 132 132 134 134 135 135 135 135 135 135 136 136 136 136 137 137 137 137 138 142 143 143 143 144 143 141 124 100
114 136 143 150 150 149 149 150 151 151 152 152 153 153 153 155 156 156 157 158 159 159 160 160 160 160 160 160 162 162 162 162 163 163 163 163 163 164 164 164 164 165 164 162 145 113
121 162 167 171 171 171 171 172 172 173 173 174 177 177 178 178 179 179 179 179 178 179 179 178 178 178 178 178 178 177 177 175 175 174 174 173 173 173 173 173 173 172 171 169 167 124
128 165 170 171 172 174 175 177 178 179 180 181 182 184 184 184 185 185 185 185 184 185 185 183 183 183 183 183 183 182 182 182 182 181 181 180 180 179 179 177 175 174 171 169 167 132
141 169 170 171 172 175 176 175 175 175 174 173 173 174 174 174 174 174 174 174 173 173 173 172 172 172 172 172 172 173 173 173 173 174 174 174 174 173 173 173 173 172 171 169 169 138
146 170 171 171 171 172 172 172 172 173 173 172 172 172 172 172 172 172 172 172 171 171 171 170 170 170 170 170 170 171 171 172 172 173 173 173 173 171 171 171 172 171 171 170 169 146
148 170 171 171 171 172 172 172 172 173 173 172 172 172 172 172 172 172 171 162 137 120 120 120 120 129 154 168 173 170 170 171 171 172 172 173 173 171 171 171 171 171 171 170 170 146
148 170 171 171 171 172 172 172 172 173 173 172 172 172 172 172 172 173 167 89 38 28 23 23 28 25 46 129 166 170 170 171 171 172 172 172 172 171 171 171 171 171 171 170 170 146
148 170 171 171 171 172 172 172 172 173 173 172 172 172 172 172 172 171 132 51 43 52 68 68 52 46 32 58 155 170 170 171 171 172 172 172 172 171 171 171 171 171 171 170 170 146
148 170 171 171 171 172 172 172 172 173 173 172 172 172 172 172 172 171 113 46 58 64 137 137 64 63 54 56 148 170 170 171 171 172 172 172 172 171 171 171 171 171 171 171 171 146
148 170 171 171 171 171 171 171 171 172 172 172 172 172 172 172 172 171 104 52 56 58 142 143 59 56 53 62 148 170 170 171 171 172 172 172 172 172 172 172 172 172 172 172 172 147
148 170 171 171 171 171 171 171 171 172 172 172 172 172 172 172 172 170 107 53 56 58 142 143 59 57 49 71 153 170 170 171 171 172 172 172 172 172 172 172 172 172 172 172 172 147
148 170 171 171 171 171 171 171 171 172 172 172 172 172 172 172 172 170 117 63 56 58 142 144 60 53 56 104 157 171 171 171 171 172 172 172 172 172 172 172 172 172 172 172 172 147
148 170 171 171 171 171 171 171 171 172 172 172 172 172 172 172 172 170 152 98 57 58 142 144 60 64 84 144 173 171 171 171 171 172 172 172 172 172 172 172 172 172 172 172 172 147
148 170 171 171 171 171 171 171 171 172 172 172 172 172 172 172 171 172 173 116 57 58 142 144 60 49 101 164 170 171 171 171 171 172 172 172 172 172 172 172 172 172 172 172 172 147
148 170 171 171 171 171 171 171 171 172 172 172 172 172 172 172 172 175 150 72 58 58 142 144 60 54 68 150 171 171 171 171 171 172 172 172 172 172 172 172 172 172 172 172 172 147
148 170 171 171 171 171 171 171 171 172 172 172 172 172 172 172 172 167 99 41 56 58 142 144 60 55 43 101 163 171 171 171 171 172 172 172 172 172 172 172 172 172 172 172 172 147
148 170 171 171 171 171 171 171 171 172 172 172 172 172 172 172 172 153 68 52 56 58 142 144 60 50 54 65 155 171 171 171 171 172 172 172 172 172 172 172 172 172 172 172 172 147
149 171 172 172 172 172 172 172 172 173 173 173 173 173 173 172 172 151 61 55 61 58 142 144 60 57 57 57 153 170 170 171 171 172 172 172 172 172 172 172 172 172 172 172 172 149
149 171 172 172 172 172 172 172 172 173 173 173 173 173 173 172 172 151 78 56 57 58 142 144 60 57 50 68 156 170 170 171 171 172 172 172 172 172 172 172 172 172 172 172 172 149
149 171 172 172 172 172 172 172 172 173 173 173 173 173 173 172 172 162 108 57 57 58 142 144 60 58 57 107 161 170 170 171 171 172 172 172 172 172 172 172 172 172 172 172 172 149
149 171 172 172 172 172 172 172 172 173 173 173 173 173 173 172 172 171 149 83 61 58 142 144 60 59 71 139 167 170 170 171 171 172 172 172 172 172 172 172 172 172 172 172 172 149
149 171 172 172 172 172 172 172 172 173 173 173 173 173 173 172 172 175 166 135 65 58 142 144 60 58 125 162 167 170 170 171 171 172 172 172 172 172 172 172 172 172 172 172 172 147
149 171 172 172 172 172 172 172 172 173 173 173 173 173 173 172 172 171 172 126 59 58 142 144 60 52 93 164 167 170 170 171 171 172 172 172 172 172 172 172 172 172 172 172 172 147
149 171 172 172 172 172 172 172 172 173 173 173 173 173 173 172 172 166 163 77 58 58 143 145 60 58 44 116 171 170 170 171 171 172 172 172 172 172 172 172 172 172 172 172 172 147
150 171 172 172 172 172 172 172 172 173 173 173 173 173 173 172 172 175 132 54 55 60 145 147 62 54 47 85 165 170 170 171 171 172 172 172 172 172 172 172 172 172 172 172 172 147
149 170 171 171 171 172 172 172 172 173 173 173 173 172 172 173 173 173 103 46 57 57 142 144 59 49 48 62 155 170 170 171 171 172 172 172 172 172 172 172 172 172 172 172 172 147
149 170 171 171 171 172 172 172 172 173 173 173 173 172 172 173 173 173 111 54 57 56 141 143 58 60 56 61 157 170 170 171 171 172 172 172 172 172 172 172 172 172 172 172 172 147
149 170 171 171 171 172 172 172 172 173 173 173 173 172 172 173 173 173 116 59 58 54 105 106 55 56 56 81 154 170 170 171 171 172 172 172 172 172 172 172 172 172 172 172 171 147
150 170 171 171 171 172 172 172 172 173 173 173 173 172 172 173 173 174 140 84 58 53 39 40 54 60 64 119 163 170 170 171 171 172 172 172 172 172 172 172 172 172 172 172 171 147
150 170 171 171 171 172 172 172 172 173 173 173 173 172 172 172 172 173 165 138 89 66 66 68 68 84 130 158 169 170 170 171 171 172 172 172 172 172 172 172 173 173 173 171 171 147
150 170 171 171 171 172 172 172 172 173 173 173 173 172 172 172 172 172 171 168 158 146 146 148 148 156 165 168 168 170 170 171 171 172 172 172 172 172 172 172 173 173 173 171 170 147
150 170 171 171 171 172 172 172 172 173 173 173 173 172 172 172 172 171 171 171 174 168 168 170 171 169 168 169 170 171 170 171 171 172 172 172 172 172 172 172 173 173 173 171 170 147
150 170 171 171 171 172 172 172 172 173 173 173 173 172 172 172 172 172 174 165 141 113 113 115 115 125 158 176 172 171 170 171 171 172 172 172 172 172 172 172 173 173 173 171 170 147
149 169 170 170 170 172 172 172 172 173 173 173 173 173 173 172 172 170 162 102 31 23 16 17 24 30 54 128 171 171 170 170 170 171 171 171 171 171 171 171 172 172 172 171 170 147
149 169 170 170 170 172 172 172 172 173 173 173 173 173 173 172 172 174 130 47 42 48 54 55 49 47 37 69 154 171 170 170 170 171 171 171 171 171 171 171 172 172 172 171 170 147
149 169 170 170 170 172 172 172 172 173 173 173 173 173 173 172 172 169 104 49 59 64 131 133 66 60 55 52 142 170 170 170 170 171 171 171 171 171 171 171 172 172 172 171 170 147
149 169 170 170 170 172 172 172 172 173 173 173 173 173 173 172 172 171 108 51 55 62 142 144 64 56 53 62 146 170 170 170 170 171 171 171 171 171 171 171 172 172 172 171 170 147
149 169 170 170 170 172 172 172 172 173 173 173 173 173 173 172 172 171 103 47 57 60 145 147 62 53 54 72 149 170 170 170 170 171 171 171 171 171 171 171 172 172 172 171 170 147
149 169 170 170 170 172 172 172 172 173 173 173 173 173 173 172 172 171 121 64 57 60 145 147 62 62 56 102 160 170 170 170 170 171 171 171 171 171 171 171 172 172 172 171 170 147
149 169 170 170 170 172 172 172 172 173 173 173 173 173 173 172 172 171 156 99 57 60 145 147 62 51 74 148 164 170 170 170 170 171 171 171 171 171 171 171 172 172 172 171 170 147
149 169 170 170 170 172 172 172 172 173 173 173 173 173 173 172 172 172 173 116 57 60 145 147 62 55 110 164 160 170 170 170 170 171 171 171 171 171 171 171 172 172 172 171 170 147
150 170 171 171 171 172 172 172 172 173 173 173 173 173 173 172 172 170 153 79 61 60 145 147 62 55 76 149 170 170 170 170 170 171 171 171 171 171 171 171 172 172 172 170 169 147
150 170 171 171 171 172 172 172 172 173 173 173 173 173 173 172 172 167 106 45 54 60 145 147 62 55 47 104 173 170 170 170 170 171 171 171 171 171 171 171 172 172 172 170 169 147
150 170 171 171 171 172 172 172 172 173 173 173 173 173 173 172 172 155 74 45 54 60 145 147 62 56 50 68 154 170 170 170 170 171 171 171 171 171 171 171 172 172 172 170 169 147
150 170 171 171 171 172 172 172 172 173 173 173 173 173 173 172 172 146 68 55 56 60 145 147 62 55 56 58 142 170 170 170 170 171 171 171 171 171 171 171 172 172 172 170 169 147
150 170 171 171 171 172 172 172 172 173 173 173 173 173 173 172 172 159 72 56 57 60 145 147 62 50 54 72 142 170 170 170 170 171 171 171 171 171 171 171 172 172 172 170 169 147
150 170 171 171 171 172 172 172 172 173 173 173 173 173 173 172 172 162 108 58 62 60 145 147 62 60 57 100 156 170 170 170 170 171 171 171 171 171 171 171 172 172 172 170 169 147
150 170 171 171 171 172 172 172 172 173 173 173 173 173 173 173 173 170 149 83 56 60 145 147 62 54 78 142 170 170 170 170 170 171 171 171 171 171 171 171 172 172 172 170 169 147
150 170 171 171 171 172 172 172 172 173 173 173 173 173 173 173 173 177 162 130 68 60 145 147 62 57 117 156 169 170 170 170 170 171 171 171 171 171 171 171 172 172 172 170 169 147
148 170 171 171 171 171 171 171 171 172 172 172 172 172 172 172 172 174 166 129 63 61 146 146 61 54 92 163 176 169 169 170 170 171 171 171 171 171 171 171 172 172 171 170 169 146
148 170 171 171 171 171 171 171 171 172 172 172 172 172 172 172 172 173 167 85 56 61 146 146 61 48 42 115 167 169 169 170 170 171 171 171 171 171 171 171 172 172 171 170 169 146
148 170 171 171 171 171 171 171 171 172 172 172 172 172 172 173 173 169 127 58 56 61 146 146 61 59 49 85 156 169 169 170 170 171 171 171 171 171 171 171 172 172 171 170 169 146
148 170 171 171 171 171 171 171 171 172 172 172 172 172 172 173 173 173 109 53 55 61 146 146 61 57 59 64 151 169 169 170 170 171 171 171 171 171 171 171 172 172 171 170 169 146
148 170 171 171 171 171 171 171 171 172 172 172 172 172 172 173 173 170 107 55 56 63 142 143 64 57 58 64 148 170 170 171 171 172 172 172 172 171 171 171 172 172 171 170 169 146
148 170 171 171 171 171 171 171 171 172 172 172 172 172 172 173 173 170 110 60 59 57 120 121 58 61 58 75 151 170 170 171 171 172 172 172 172 171 171 171 172 172 171 170 169 146
148 169 171 171 171 171 171 170 170 171 171 171 171 171 171 172 172 171 136 81 53 52 34 35 53 53 71 117 161 170 170 171 171 171 171 170 170 170 170 170 171 172 171 170 167 146
148 169 171 171 171 171 171 171 171 171 171 171 171 171 171 172 172 169 164 124 80 68 54 55 69 80 110 154 163 170 170 171 171 172 172 171 171 171 171 171 171 172 171 170 167 146
141 166 169 171 171 170 170 169 169 170 170 170 170 170 170 169 169 173 169 162 158 136 136 136 136 151 156 163 165 169 169 169 169 169 169 169 169 169 169 169 170 178 169 170 164 134
117 162 169 167 163 165 165 165 165 165 165 165 165 165 165 166 166 167 166 160 160 159 159 159 161 161 164 170 170 167 166 165 165 165 165 165 165 165 165 165 165 165 163 167 159 123
91 143 154 158 158 159 159 160 160 160 160 160 160 160 160 161 161 163 161 161 161 161 163 161 161 160 160 160 160 160 159 159 159 159 159 159 159 158 158 157 156 155 155 155 138 82
56 92 107 114 115 115 115 115 115 115 115 115 115 115 115 115 116 116 117 118 118 116 115 116 116 117 117 117 117 116 116 116 116 116 116 116 116 115 115 114 114 114 113 106 81 58
51 40 40 40 40 41 41 41 41 41 41 41 41 41 41 41 41 41 41 42 42 42 43 43 43 43 43 43 43 43 43 42 42 41 41 40 40 39 39 40 41 42 43 46 47 47
49 48 48 47 47 48 48 48 48 48 48 48 48 48 48 48 48 48 48 49 49 49 50 50 50 50 50 50 50 50 50 50 50 49 49 49 49 48 48 49 50 50 52 52 53 51
