P2
60 72
255
205 205 205 205 205 205 187 127 47 51 70 41 40 40 41 40 42 57 47 40 39 40 40 39 40 40 41 40 39 40
40 41 40 41 42 41 45 45 41 41 42 41 41 41 40 41 41 42 42 41 46 43 42 41 41 41 41 41 41 41
205 205 205 205 203 203 187 144 64 110 92 42 43 42 42 41 41 41 40 40 40 41 40 41 40 40 40 40 39 40
40 41 41 41 41 42 43 42 41 41 41 41 42 41 41 40 41 41 41 42 43 45 42 41 41 41 41 41 41 41
205 205 203 206 205 202 179 142 89 160 129 43 40 41 41 42 40 40 41 41 41 42 39 40 41 40 39 40 40 41
39 63 57 42 40 42 48 43 46 49 42 41 42 42 42 41 41 41 41 42 45 42 42 41 41 41 41 41 41 41
205 205 203 206 205 202 182 134 99 134 145 56 39 40 40 41 41 39 40 41 42 42 41 41 40 41 41 39 43 62
85 85 60 43 41 48 99 60 81 75 47 41 40 42 42 42 41 41 41 41 45 42 42 41 41 41 41 41 41 41
206 206 203 206 205 202 172 127 97 107 121 76 40 40 41 40 40 40 40 41 40 41 41 41 40 42 42 39 49 84
150 120 55 49 44 75 114 100 112 62 54 54 41 42 41 41 41 41 41 41 43 42 41 41 41 41 41 41 41 41
206 206 205 205 205 202 163 118 95 102 93 56 39 40 40 41 40 41 40 41 40 41 40 41 42 40 40 67 115 71
115 147 53 46 78 106 134 113 65 51 62 56 45 41 41 41 40 41 41 41 43 42 41 42 42 42 42 42 42 42
206 207 205 205 205 194 159 115 97 96 94 48 39 40 40 41 40 41 40 40 41 40 40 39 39 40 44 76 94 89
133 120 84 63 82 128 125 112 69 65 67 50 40 41 41 41 40 40 40 40 43 42 42 42 42 42 42 42 42 42
203 203 206 205 203 192 158 107 97 97 95 53 39 38 40 40 40 41 40 39 40 40 40 40 40 47 53 65 105 145
131 104 77 74 103 139 122 119 99 85 64 49 43 42 41 41 40 40 40 40 42 41 41 41 42 42 42 42 42 42
205 206 205 205 203 187 148 99 96 99 99 53 36 39 41 41 41 43 42 42 39 40 39 45 43 64 108 126 149 149
113 87 60 81 138 132 112 118 94 76 60 48 43 43 42 41 41 41 41 41 42 41 41 41 41 41 41 41 41 41
205 206 205 206 202 185 139 101 95 99 100 52 36 39 41 62 98 53 42 47 48 41 41 57 64 92 139 145 149 128
104 85 81 124 152 125 118 110 77 70 51 43 42 42 42 41 41 41 41 41 43 42 42 42 41 41 41 41 41 41
205 206 205 205 200 175 125 97 99 99 96 50 39 38 42 60 146 100 42 46 54 72 93 53 91 143 151 175 149 139
112 78 110 143 141 119 106 91 55 57 62 56 42 43 42 41 41 41 41 41 43 41 41 41 41 41 41 42 41 41
205 206 206 205 198 172 116 99 96 96 92 50 39 40 43 92 117 71 85 63 83 83 79 63 100 143 157 160 177 156
105 99 110 115 126 131 129 89 69 65 51 61 43 41 42 42 40 40 40 40 41 41 40 42 41 42 41 42 42 41
205 206 206 203 192 165 106 99 97 96 87 49 42 75 171 177 178 178 181 178 179 178 174 176 181 184 182 185 186 185
181 181 183 180 183 180 183 176 176 174 176 174 176 176 176 176 174 174 174 174 174 174 173 152 60 41 40 41 42 42
205 206 206 203 189 162 102 96 100 99 75 47 42 84 202 204 204 204 204 204 202 204 201 204 202 202 206 203 202 205
205 204 204 204 200 204 204 201 204 204 204 205 204 204 205 204 204 204 204 204 204 205 202 187 108 55 40 40 41 42
205 205 205 203 187 144 101 97 99 100 67 43 43 81 205 206 203 205 205 205 205 205 205 203 206 205 204 202 206 207
203 203 203 205 205 206 203 203 205 203 205 205 205 203 205 203 205 205 205 205 205 205 203 187 114 86 42 42 42 42
205 205 203 202 182 138 101 97 99 100 61 41 45 91 206 205 205 205 205 205 205 206 205 205 158 110 103 116 171 201
205 202 205 203 203 205 203 196 145 106 104 123 182 205 206 206 205 205 205 205 205 205 200 181 111 95 53 42 41 42
204 204 202 199 174 128 101 97 99 100 55 41 45 96 205 203 203 205 205 203 205 200 122 33 30 36 35 30 24 73
184 205 206 205 203 192 100 29 31 34 35 34 24 94 195 204 205 205 204 204 205 205 199 172 111 97 82 44 41 42
204 204 202 198 170 122 101 97 99 100 55 40 46 104 205 203 203 205 205 205 189 51 40 64 78 105 101 81 58 41
46 185 202 205 172 42 44 63 82 106 102 79 59 36 62 192 205 205 204 204 205 203 196 164 109 97 92 50 41 41
205 205 203 193 164 110 97 99 100 85 49 42 46 132 205 205 205 205 202 192 54 58 91 164 191 173 173 194 141 70
47 76 197 165 36 56 105 176 191 174 171 195 127 65 42 108 205 205 205 205 203 203 195 150 104 99 96 67 41 43
205 205 202 192 158 104 97 97 99 79 45 41 50 152 205 205 205 205 201 70 63 91 195 135 54 72 58 100 185 142
64 46 177 56 60 119 197 118 53 67 61 117 196 119 62 54 205 205 205 205 206 203 191 139 101 96 99 87 42 41
205 205 203 188 148 102 97 99 99 71 40 43 58 166 205 205 205 205 157 55 75 185 99 90 176 184 174 88 100 191
75 55 65 65 100 186 76 106 179 185 176 71 134 179 68 47 205 205 205 205 205 203 189 132 99 97 97 99 55 39
205 205 202 182 141 102 97 96 93 67 41 43 70 171 203 205 205 205 70 70 125 195 82 200 95 42 149 186 46 194
82 62 62 69 157 142 108 188 76 57 171 164 57 188 67 56 205 205 205 205 203 201 186 125 96 97 97 96 62 36
205 205 199 178 132 101 96 99 93 66 41 42 93 183 203 203 204 205 58 67 163 110 117 166 44 51 104 180 77 174
79 69 62 72 180 86 155 110 49 49 151 141 89 174 67 60 205 205 205 205 206 201 173 116 96 97 97 96 65 40
205 205 198 175 127 101 97 97 85 54 42 41 106 190 202 207 200 201 68 61 168 100 138 166 74 70 162 123 109 173
70 64 65 72 170 76 184 140 70 79 194 89 145 149 66 64 205 205 205 205 206 198 165 113 96 97 97 96 67 41
205 205 195 167 118 99 97 99 82 46 39 39 137 193 203 205 202 179 69 55 157 136 74 188 169 173 159 67 184 95
61 82 66 55 185 100 101 193 166 184 140 80 200 72 69 124 205 205 205 205 206 199 158 106 96 97 97 96 63 40
205 205 195 163 116 97 97 99 81 43 41 41 150 196 207 205 202 193 80 55 96 197 84 60 104 71 72 180 145 57
71 171 72 52 152 181 67 71 108 65 76 190 110 59 80 196 205 205 205 205 206 195 150 102 96 97 97 96 61 40
205 203 194 151 109 97 97 96 73 40 40 60 168 199 205 205 205 205 133 64 47 141 191 151 131 157 191 124 50 71
154 194 112 61 55 162 184 148 134 171 191 97 49 75 173 204 205 205 205 205 203 195 142 100 96 97 97 87 52 40
205 202 187 143 104 99 97 95 67 40 40 75 174 200 205 205 205 205 192 99 58 37 77 136 147 124 59 51 71 153
200 200 189 85 52 43 87 136 142 103 50 50 76 171 202 202 205 205 205 205 202 189 135 99 96 97 97 85 45 40
203 201 181 137 101 97 99 92 55 42 39 98 181 202 205 205 204 204 201 195 106 67 44 40 43 44 61 97 173 198
205 202 203 184 96 61 41 46 43 47 68 103 191 201 205 205 205 205 204 204 203 180 127 100 97 97 96 79 41 41
203 201 174 134 101 99 99 89 49 42 43 126 192 200 205 205 204 204 207 198 190 169 129 104 108 127 169 181 200 202
205 203 206 199 190 160 127 108 113 141 176 177 205 203 206 203 205 205 204 204 201 173 120 97 99 97 96 77 40 40
203 200 170 124 100 96 98 87 40 40 48 146 193 205 205 205 204 204 206 203 203 202 195 194 193 192 202 202 205 205
205 205 205 203 202 200 196 194 201 202 203 205 205 205 205 205 205 205 205 205 200 166 113 95 99 96 96 71 41 40
203 198 165 121 99 96 98 83 40 40 52 154 200 206 205 205 204 204 205 205 205 205 203 203 204 204 205 205 205 206
205 205 205 205 205 205 205 205 203 203 205 205 205 205 205 205 205 205 205 205 200 162 108 97 99 96 94 65 40 40
203 191 155 114 99 97 95 78 40 40 73 169 205 205 205 205 206 205 205 205 205 203 203 203 205 203 204 204 206 206
205 205 205 205 203 205 205 203 203 203 205 206 205 205 205 205 205 205 205 205 194 155 103 95 97 97 88 52 42 41
202 188 149 111 97 97 96 66 38 39 90 176 203 203 205 203 206 206 205 206 203 205 198 199 199 198 208 206 203 205
205 205 205 205 203 202 198 195 199 201 202 205 205 205 205 205 205 205 205 205 193 150 99 96 97 97 86 47 41 39
203 184 142 103 97 99 93 52 40 41 121 187 205 203 203 202 206 207 201 172 91 49 29 28 43 77 165 203 200 203
201 205 207 157 78 46 30 28 55 90 187 204 205 206 206 206 205 205 205 202 189 141 99 96 97 97 84 43 41 39
202 179 137 102 96 96 94 47 40 46 128 191 206 205 206 202 202 201 100 23 34 49 59 54 42 35 34 133 200 209
205 189 76 30 38 49 57 58 45 31 38 160 203 205 205 205 205 205 205 202 185 134 99 97 97 97 81 43 41 23
201 173 129 100 97 97 92 45 41 49 143 199 206 205 203 203 200 71 44 58 116 174 164 168 136 71 48 41 167 206
196 50 42 65 132 174 168 168 128 64 49 51 191 205 206 203 205 205 205 202 180 124 99 97 99 97 76 40 41 23
199 166 123 97 97 97 85 45 42 55 151 203 206 205 202 201 86 41 72 187 189 128 101 122 184 183 69 45 78 194
55 44 82 197 174 122 105 134 199 154 58 41 121 205 203 205 205 205 205 202 174 117 97 97 97 95 67 41 41 26
192 158 113 99 97 100 68 43 40 75 173 202 206 201 203 158 45 56 184 123 57 132 157 111 48 174 151 55 39 94
44 75 192 102 64 142 152 91 58 190 102 51 43 205 205 205 205 206 205 198 170 107 99 97 98 93 48 41 39 30
192 155 108 97 97 99 52 42 42 88 178 202 205 205 201 67 46 139 151 60 201 157 150 204 106 74 193 52 45 44
54 181 105 85 204 152 159 205 77 126 184 51 50 210 205 205 205 206 205 196 164 104 97 97 96 94 42 43 39 30
182 149 104 99 97 100 45 41 45 103 188 204 203 208 182 41 59 174 80 163 123 40 41 128 147 74 164 51 55 56
72 187 53 184 71 36 41 164 95 111 148 48 45 209 205 205 205 205 203 193 157 100 96 97 97 93 42 41 39 32
181 143 101 99 96 97 43 41 46 117 193 204 205 202 160 47 78 191 66 192 111 47 48 192 97 114 162 47 59 54
105 168 52 207 70 48 51 203 71 135 148 48 48 211 203 205 205 205 203 191 148 98 97 97 99 89 42 41 26 32
175 130 99 97 97 90 42 40 50 140 201 205 205 200 140 49 63 187 57 170 176 95 152 190 65 205 82 53 62 54
78 189 46 176 161 97 176 174 57 204 58 51 109 208 205 205 202 205 203 185 137 99 99 99 98 85 43 41 30 33
169 122 97 97 96 77 42 40 57 158 199 205 201 206 175 54 53 179 136 61 142 172 137 62 154 162 51 60 118 53
53 191 109 81 154 168 134 60 180 128 47 68 204 208 206 206 205 205 200 180 127 97 99 97 95 70 42 40 32 35
163 113 99 99 95 62 41 40 66 173 199 205 202 206 189 59 44 77 195 126 71 68 87 190 177 38 57 139 178 53
39 117 197 110 71 67 98 206 158 35 50 150 205 205 206 205 206 205 198 177 117 99 99 99 93 55 41 39 33 37
158 104 97 99 94 57 40 41 85 180 201 205 205 202 202 146 50 41 80 163 175 171 169 129 39 53 124 198 192 121
50 39 102 180 177 178 163 101 40 47 147 201 206 205 205 206 206 203 194 171 110 96 99 95 90 49 40 37 33 40
145 101 99 97 94 57 41 40 101 190 203 205 203 202 203 201 116 50 36 39 37 39 36 40 60 139 200 206 206 206
95 50 37 42 41 38 39 46 62 162 195 201 205 205 205 205 205 203 194 166 104 99 97 97 91 48 42 32 30 40
127 99 97 97 94 56 41 44 126 194 205 205 205 202 206 199 123 50 51 53 46 44 56 46 63 178 206 202 204 193
97 50 51 51 45 45 51 50 76 191 203 203 205 205 205 205 205 203 192 159 102 97 99 99 91 47 42 33 33 41
116 100 97 97 87 53 42 48 151 195 205 205 205 207 203 89 41 50 81 127 135 128 93 58 43 71 201 207 190 67
53 61 89 130 133 121 88 54 41 102 202 207 205 205 205 205 206 202 188 153 99 96 99 99 85 47 40 31 35 40
108 99 99 97 82 51 42 56 170 200 205 203 203 201 95 37 61 161 196 174 149 173 202 130 51 43 132 202 73 41
75 184 200 169 160 183 192 108 48 44 175 202 205 205 205 205 205 202 186 145 99 97 99 97 76 45 40 33 36 40
108 99 97 99 68 48 43 71 184 203 205 203 201 134 47 64 183 166 64 78 94 58 89 197 97 47 48 89 54 72
196 139 58 82 80 56 121 203 73 48 66 208 205 205 205 205 205 202 182 131 100 96 97 99 60 42 40 32 37 41
124 97 97 97 67 48 42 82 187 205 206 203 193 70 51 156 149 50 187 192 197 202 57 132 164 50 41 44 55 185
118 66 190 193 197 177 43 162 121 47 83 208 205 205 205 205 202 199 177 124 99 97 99 97 54 40 38 31 39 41
136 101 97 96 64 46 47 108 193 203 202 203 169 45 63 193 84 184 125 40 50 177 120 129 159 48 53 52 80 195
56 201 97 33 58 193 61 158 128 49 42 206 205 205 205 205 203 196 171 116 99 97 98 96 52 40 35 28 40 41
135 109 99 95 63 46 47 138 193 203 203 205 137 48 93 166 52 195 68 45 49 208 84 123 157 50 53 56 130 142
58 204 49 47 46 204 62 146 132 50 62 209 205 205 205 205 203 195 166 111 97 99 99 95 50 41 34 27 40 41
129 118 97 86 54 45 50 156 199 206 207 203 105 50 82 184 50 187 121 70 120 193 55 184 83 53 53 54 108 168
61 191 100 73 143 174 57 186 59 51 198 206 205 205 205 205 203 191 159 104 97 99 97 89 49 41 35 32 39 39
125 118 100 77 46 42 59 170 201 206 207 203 145 51 62 194 89 101 193 186 185 58 135 174 43 52 82 54 82 188
69 134 193 190 170 46 152 149 47 74 202 209 205 205 205 205 201 189 150 103 97 99 97 84 47 40 38 33 39 39
122 118 106 72 41 40 73 180 205 205 205 205 171 58 42 149 190 81 66 84 63 150 181 39 51 126 144 47 39 175
168 67 73 77 71 169 166 37 60 150 206 207 205 205 205 205 201 184 139 101 97 99 96 71 42 40 34 32 39 39
118 117 97 56 40 40 95 185 205 203 205 203 186 85 49 50 148 199 168 172 187 162 47 46 100 199 182 65 45 57
170 196 173 171 187 123 43 44 128 203 204 207 205 205 205 205 198 181 130 100 97 99 96 65 44 38 26 33 39 39
109 101 62 46 39 42 124 194 205 205 205 203 202 192 79 47 37 74 97 98 52 36 55 116 197 207 203 170 71 46
37 81 100 96 36 43 56 136 198 207 206 206 205 205 205 205 198 177 122 99 97 99 96 65 41 38 25 37 39 39
52 53 45 44 40 51 142 200 205 205 203 205 202 200 199 104 59 45 37 38 55 76 172 202 202 203 203 194 179 89
60 42 38 41 59 99 192 203 207 206 207 207 205 206 206 206 198 174 117 100 97 99 96 64 41 38 27 37 39 39
44 45 43 43 50 63 158 199 205 205 205 203 202 203 200 199 185 151 142 153 179 202 203 206 207 203 210 208 200 203
175 149 143 153 195 207 214 214 214 216 216 216 217 219 220 220 215 182 118 97 96 97 93 61 42 38 33 40 39 39
44 45 45 48 71 74 159 201 206 206 206 202 203 207 209 210 213 220 220 220 219 222 220 220 220 220 222 225 227 224
231 234 228 230 232 232 231 237 234 235 235 235 241 242 243 244 236 191 122 99 96 96 92 59 42 38 35 41 39 39
44 44 48 71 92 79 136 203 205 202 205 203 207 212 223 224 226 227 231 231 230 230 230 232 233 235 235 237 237 238
241 242 243 243 244 244 243 243 243 243 244 244 247 247 247 247 226 172 114 99 97 97 80 55 41 32 36 40 40 40
73 73 73 84 106 89 96 166 165 165 167 166 170 173 187 188 189 189 191 192 192 192 192 192 192 192 192 191 191 191
191 191 190 190 189 189 189 189 191 192 192 192 188 188 188 188 178 157 116 97 96 97 78 54 40 27 36 41 40 40
78 78 86 104 126 115 83 141 156 156 156 153 155 157 158 157 156 156 156 157 157 157 157 157 157 157 157 157 157 158
157 157 155 157 158 159 159 157 157 156 155 156 158 158 158 158 153 149 130 103 96 97 73 48 40 25 39 41 40 40
95 95 111 127 135 130 79 122 148 150 151 149 149 151 150 149 145 144 150 150 150 150 149 149 149 149 150 150 150 149
149 149 148 148 149 149 149 149 148 148 149 149 149 149 149 149 149 145 138 106 96 99 71 47 40 29 39 41 40 39
131 131 134 137 135 129 87 92 135 139 139 139 139 139 139 139 139 139 139 139 139 139 139 139 139 139 139 139 139 139
139 138 139 138 139 139 139 139 139 139 139 139 139 139 139 139 138 137 134 115 98 93 67 43 40 34 40 41 39 39
132 132 131 132 131 128 101 65 109 131 131 131 131 131 131 131 131 131 131 131 131 131 131 131 131 131 131 131 131 131
131 130 131 130 130 130 130 130 131 131 131 131 131 131 131 131 130 131 130 120 98 88 57 43 36 34 39 41 39 39
124 124 124 123 123 123 111 70 77 119 124 124 124 124 124 124 124 124 124 124 124 124 124 124 124 124 124 124 124 124
124 124 124 124 124 124 124 124 124 124 124 124 124 124 124 124 124 124 124 122 103 82 46 40 26 35 39 39 39 39
118 118 117 118 118 118 115 88 51 95 118 118 118 118 118 118 118 118 118 118 118 118 118 118 118 118 118 118 118 118
118 118 118 118 118 118 118 118 118 118 118 118 118 118 118 118 118 118 121 118 110 79 42 40 25 36 38 38 38 38
118 118 118 118 118 118 115 85 34 53 106 116 117 117 118 118 118 118 118 118 118 118 118 118 118 118 118 118 118 118
118 118 118 118 118 118 118 118 118 118 118 118 118 118 118 118 118 117 118 116 99 51 41 41 27 37 39 39 39 39
103 103 103 103 103 103 94 59 35 35 78 100 102 102 103 103 103 103 103 103 103 103 103 103 103 103 103 103 103 103
103 103 103 103 103 103 103 103 103 103 103 103 103 103 103 103 103 104 102 95 63 48 42 39 32 39 39 39 40 40
